X: 39745
T: Thadelo's
R: polka
M: 2/4
K: Amajor
|:a>f ef|ec BA|Bc e>f|ec BA|
a>f ef|ec BA|Bc e/f/e/c/|1 BA c'b:|2 BA EF||
|:AG/A/ Bc/B/|Aa fe/f/|e/c/B e/c/B|e/c/B/A/ FE|
AG/A/ Bc/B/|Aa fe/f/|e/c/B e/c/B|1 cA EF:|2 cA A2||

